X:24
T: Ungaresca
R:0Estampie
C: Pierre Phalèse
C: 1583
Z:Transcrit et/ou corrigé par B@D - 2007-08-23
Z:Pour toute observation mailto:-@- M: C| L: 1/4
K:C
V: 1
Q: 1/2=132
"C"cc dc|cG GA/B/|ccdc|G2 G2 ::
eeed/e/|fedc|eeed/e/|fedf|ecdc/=B/|c2 c2:|
T: Saltarello
L:1/4
Q: 3/8=132
M: 6/8
cc/dc/|cG/G A//B//|cc/dc/|G3/2 G3/2 ::
ee/ed//e//|fe/ dc/|ee/ ed//e//|fe/ df/|ec/ dc//=B//|c3/2 c3/2:|





